lib/brands/icons/usertesting.svg

<svg xmlns="http://www.w3.org/2000/svg" fill="none" aria-hidden="true" viewBox="0 0 48 48"><g id="usertesting-Icon"><g id="Vector"><path fill="black" d="M14.0994 6H30.9752C34.1231 6 36.5988 8.47574 36.4805 11.5148V29.9669C36.4805 33.0012 34.0095 35.4769 30.9704 35.4769H27.2592L29.2852 42L19.5006 35.4769H14.1042C10.9562 35.4769 8.48048 33.0012 8.48048 29.8533V11.5195C8.47576 8.47574 10.9515 6 14.0994 6ZM20.6556 26.2509C20.0829 25.9337 19.6237 25.4746 19.2781 24.8686C18.9326 24.2627 18.7621 23.5337 18.7621 22.6864V12.8544C18.7621 12.703 18.729 12.5846 18.658 12.5089C18.5917 12.4284 18.4781 12.3905 18.3172 12.3905H15.8036C15.7468 12.3905 15.69 12.4 15.6379 12.4237C15.5858 12.4473 15.5385 12.4805 15.5053 12.5278C15.4249 12.6178 15.3823 12.7361 15.387 12.8592V22.6485C15.387 24.2154 15.7089 25.5266 16.3527 26.5917C16.9965 27.6521 17.858 28.4426 18.9468 28.9633C20.0308 29.484 21.2426 29.7396 22.5775 29.7396C23.9172 29.7396 25.129 29.484 26.213 28.9775C27.2971 28.471 28.1586 27.6899 28.8024 26.6296C29.4462 25.5692 29.7681 24.2533 29.7681 22.6817V12.8639C29.7681 12.8024 29.7586 12.7408 29.7349 12.6793C29.7113 12.6225 29.6781 12.5657 29.6355 12.5231C29.5456 12.4331 29.4272 12.3858 29.2758 12.3858H26.8805C26.7385 12.3858 26.6201 12.4284 26.5349 12.5183C26.445 12.6083 26.4024 12.7219 26.4024 12.8639V22.6864C26.4024 23.4769 26.232 24.1822 25.8911 24.7929C25.5503 25.4083 25.0911 25.8817 24.5089 26.2178C23.9266 26.5538 23.2829 26.7195 22.5823 26.7195C21.8675 26.7243 21.2284 26.568 20.6556 26.2509Z"/><path fill="black" d="M37.9716 6C37.1243 6 36.4237 6.68166 36.4237 7.54793C36.4237 8.39527 37.1243 9.09586 37.9716 9.09586C38.819 9.09586 39.5195 8.4142 39.5195 7.54793C39.5195 6.70059 38.8379 6 37.9716 6ZM37.9716 8.76923C37.3231 8.76923 36.7692 8.21538 36.7692 7.54793C36.7692 6.88047 37.3231 6.32663 37.9716 6.32663C38.6201 6.32663 39.174 6.86154 39.174 7.54793C39.1787 8.21538 38.6249 8.76923 37.9716 8.76923Z"/><path fill="black" d="M37.3752 6.70533C37.3846 6.69586 37.3941 6.69112 37.4083 6.69112H38.1326C38.232 6.69112 38.3266 6.71953 38.4071 6.76686C38.4876 6.81893 38.5539 6.88521 38.6012 6.97041C38.6485 7.05562 38.6722 7.14556 38.6722 7.24497C38.6722 7.33964 38.6438 7.42959 38.5917 7.51479C38.5397 7.6 38.4687 7.66627 38.3834 7.71834L38.6959 8.33373C38.6959 8.33846 38.7006 8.3432 38.7006 8.35266C38.7006 8.36213 38.6959 8.3716 38.6911 8.37633C38.6864 8.38106 38.6769 8.3858 38.6675 8.3858H38.374C38.3598 8.3858 38.3503 8.3858 38.3456 8.37633C38.3361 8.3716 38.3314 8.3574 38.3219 8.3432L38.0521 7.79882H37.7065V8.33846C37.7065 8.36686 37.6923 8.3858 37.6592 8.3858H37.4083C37.3799 8.3858 37.3657 8.3716 37.3657 8.33846V6.73846C37.3657 6.72426 37.3704 6.71479 37.3752 6.70533ZM37.6971 7.51006H38.0521C38.1042 7.51006 38.1515 7.50059 38.1941 7.47219C38.2367 7.44852 38.2698 7.41538 38.2935 7.37751C38.3172 7.33491 38.3314 7.29231 38.3314 7.24497C38.3314 7.19763 38.3219 7.15503 38.2935 7.11243C38.2698 7.06982 38.2367 7.04142 38.1941 7.01302C38.1515 6.98935 38.1042 6.97515 38.0521 6.97515H37.6971V7.51006Z"/></g></g></svg>

<svg xmlns="http://www.w3.org/2000/svg" fill="none" aria-hidden="true" viewBox="0 0 48 48"><g fill="#000"><path d="M14.1 6h16.875c3.148 0 5.624 2.476 5.505 5.515v18.452a5.518 5.518 0 0 1-5.51 5.51h-3.71L29.284 42 19.5 35.477h-5.397c-3.148 0-5.624-2.476-5.624-5.624V11.52C8.476 8.477 10.951 6 14.1 6Zm6.556 20.25a3.548 3.548 0 0 1-1.378-1.381c-.345-.606-.516-1.335-.516-2.183v-9.832c0-.151-.033-.27-.104-.345-.066-.08-.18-.119-.34-.119h-2.514a.399.399 0 0 0-.166.034.318.318 0 0 0-.133.104.47.47 0 0 0-.118.331v9.79c0 1.566.322 2.878.966 3.943.643 1.06 1.505 1.85 2.594 2.371 1.084.521 2.296.777 3.63.777 1.34 0 2.552-.256 3.636-.762 1.084-.507 1.946-1.288 2.59-2.348.643-1.06.965-2.377.965-3.948v-9.818a.487.487 0 0 0-.133-.34.485.485 0 0 0-.36-.138h-2.394a.457.457 0 0 0-.346.132.464.464 0 0 0-.133.346v9.822c0 .79-.17 1.496-.51 2.107a3.64 3.64 0 0 1-1.383 1.425 3.788 3.788 0 0 1-1.927.502c-.715.004-1.354-.152-1.926-.47ZM37.972 6c-.848 0-1.548.682-1.548 1.548 0 .847.7 1.548 1.548 1.548.847 0 1.547-.682 1.547-1.548A1.543 1.543 0 0 0 37.973 6Zm0 2.77c-.649 0-1.203-.555-1.203-1.222 0-.668.554-1.221 1.203-1.221.648 0 1.202.535 1.202 1.22a1.22 1.22 0 0 1-1.202 1.222Z"/><path d="M37.375 6.705a.043.043 0 0 1 .033-.014h.725c.099 0 .194.029.274.076a.571.571 0 0 1 .265.478.512.512 0 0 1-.08.27.61.61 0 0 1-.209.203l.313.616c0 .004.005.01.005.019 0 .01-.005.019-.01.023a.036.036 0 0 1-.024.01h-.293c-.014 0-.024 0-.028-.01-.01-.004-.015-.019-.024-.033l-.27-.544h-.346v.54c0 .028-.014.047-.047.047h-.25c-.03 0-.043-.014-.043-.048v-1.6c0-.014.004-.023.01-.033Zm.322.805h.355c.052 0 .1-.01.142-.038a.274.274 0 0 0 .1-.094.267.267 0 0 0 .037-.133c0-.047-.01-.09-.038-.133a.286.286 0 0 0-.099-.099.289.289 0 0 0-.142-.038h-.355v.535Z"/></g></svg>
